build/img/sprite.svg

<svg xmlns="http://www.w3.org/2000/svg" xmlns:xlink="http://www.w3.org/1999/xlink"><symbol id="email" viewBox="0 0 512 512">
<rect x="64" y="64" style="fill:#ECEFF1;" width="384" height="384"/>
<polygon style="fill:#CFD8DC;" points="256,296.384 448,448 448,148.672 "/>
<path style="fill:#F44336;" d="M464,64h-16L256,215.616L64,64H48C21.504,64,0,85.504,0,112v288c0,26.496,21.504,48,48,48h16V148.672
	l192,147.68L448,148.64V448h16c26.496,0,48-21.504,48-48V112C512,85.504,490.496,64,464,64z"/>
<g>
</g>
<g>
</g>
<g>
</g>
<g>
</g>
<g>
</g>
<g>
</g>
<g>
</g>
<g>
</g>
<g>
</g>
<g>
</g>
<g>
</g>
<g>
</g>
<g>
</g>
<g>
</g>
<g>
</g>
</symbol><symbol id="fb_icon"><path d="M11.548.005L8.67 0C5.436 0 3.347 2.318 3.347 5.906V8.63H.453c-.25 0-.453.219-.453.49v3.945c0 .27.203.49.453.49h2.894v9.956c0 .27.202.489.452.489h3.776c.25 0 .452-.22.452-.49v-9.956h3.384c.25 0 .453-.219.453-.489l.001-3.946a.51.51 0 00-.132-.346.436.436 0 00-.32-.143H8.026V6.32c0-1.11.245-1.673 1.582-1.673h1.939c.25 0 .452-.22.452-.49V.494c0-.27-.202-.489-.452-.489z" fill="#fff"/></symbol><symbol id="insta_icon"><path d="M17.503 0H6.497A6.504 6.504 0 000 6.497v11.007A6.504 6.504 0 006.497 24h11.007A6.504 6.504 0 0024 17.504V6.497A6.504 6.504 0 0017.503 0zM12 18.562A6.57 6.57 0 015.438 12 6.57 6.57 0 0112 5.438 6.57 6.57 0 0118.562 12 6.57 6.57 0 0112 18.562zm6.72-11.577c-1.07 0-1.94-.87-1.94-1.939 0-1.07.87-1.94 1.94-1.94 1.069 0 1.939.87 1.939 1.94 0 1.07-.87 1.94-1.94 1.94z" fill="#fff"/><path d="M12 6.844A5.161 5.161 0 006.845 12 5.161 5.161 0 0012 17.155 5.161 5.161 0 0017.155 12 5.161 5.161 0 0012 6.844zm6.719-2.33a.533.533 0 10.001 1.066.533.533 0 00-.001-1.066z" fill="#fff"/></symbol><symbol id="logo" viewBox="0 0 63 60"><path fill-rule="evenodd" clip-rule="evenodd" d="M41.892 17.382h-1.956v-1.995c0-1.297-1.04-2.374-2.293-2.374H25.656c-1.253 0-2.293 1.077-2.293 2.374v1.995h-2.14c-3.272 0-5.902 2.724-5.902 6.111v15.958c0 3.387 2.63 6.11 5.901 6.11h20.67c3.273 0 5.903-2.723 5.903-6.11V23.493c0-3.356-2.662-6.111-5.903-6.111zM62.196 29.13l-12.812-6.238c0 .19.03.38.03.57v.76l11.254 5.477c.702.348.977 1.203.672 1.9l-6.452 14.248c-.337.729-1.162 1.013-1.834.696l-5.107-2.47c-1.376 1.9-3.547 3.136-6.023 3.136h-2.966l12.352 5.983c.704.349 1.53.032 1.835-.695l9.754-21.5c.275-.665-.03-1.52-.703-1.867zM21.222 47.24c-2.477 0-4.678-1.266-6.055-3.198L9.97 46.576a1.333 1.333 0 01-1.834-.697L1.684 31.63c-.337-.729-.032-1.584.672-1.9l11.374-5.54v-.698c0-.222 0-.444.032-.664l-12.966 6.3c-.703.348-.978 1.203-.673 1.9l9.755 21.53c.336.729 1.162 1.013 1.835.697l12.353-5.985h-2.844v-.031zm20.793-28.148a4.151 4.151 0 012.569 1.014l-4.037 4.178a11.082 11.082 0 00-1.712-1.899l3.18-3.293zm-10.61 2.153c5.442 0 9.846 4.56 9.846 10.195 0 5.637-4.404 10.196-9.846 10.196-5.443 0-9.846-4.59-9.846-10.227 0-5.637 4.403-10.164 9.846-10.164zm-2.02-1.52l.612-.633h3.548l-.55.57c-.52-.063-1.04-.127-1.59-.127-.703 0-1.376.064-2.02.19zm10.184-.633l-2.14 2.216c-.766-.474-1.56-.886-2.417-1.17l1.01-1.046h3.547zm-14.586-3.705c0-.38.306-.664.642-.664h11.986c.367 0 .643.317.643.664v.95H24.983v-.95zm-.977 3.705h3.515l-2.14 2.216a11.74 11.74 0 00-3.792 3.927l-.795.823h-3.547l6.759-6.966zm-7.033 4.401c0-2.438 1.926-4.401 4.25-4.401h.305l-4.555 4.718v-.317zm0 15.958v-.633l2.384-2.47h1.59c.215.443.429.887.672 1.33l-4.005 4.116a4.71 4.71 0 01-.641-2.343zm4.25 4.402a4.141 4.141 0 01-2.386-.76l3.822-3.958a11 11 0 001.835 1.773l-2.843 2.945h-.429zm6.42 0h-3.547l1.896-1.964c.796.443 1.652.791 2.54 1.013l-.888.95zm6.024 0h-3.546l.58-.602c.245 0 .459.031.704.031 1.131 0 2.232-.19 3.272-.506l-1.01 1.077zm8.47 0l3.976-4.117c-.123 2.216-1.835 3.99-3.976 4.117zm4.006-6.714l-6.482 6.714h-3.547l7.277-7.536h2.752v.822zm0-12.442l-1.315 1.361h-3.21c-.03-.064-.062-.159-.123-.222l4.19-4.306a4.36 4.36 0 01.458 1.995v1.172zm-14.738 15.26c4.556 0 8.256-3.83 8.256-8.548s-3.7-8.549-8.256-8.549c-4.557 0-8.257 3.831-8.257 8.549 0 4.717 3.7 8.549 8.257 8.549zm0-15.07c3.486 0 6.298 2.913 6.298 6.522 0 3.61-2.812 6.523-6.298 6.523s-6.299-2.914-6.299-6.523c-.031-3.578 2.813-6.523 6.3-6.523zm-5.198 6.522c0-2.976 2.324-5.382 5.198-5.382 1.131 0 2.17.378 3.027 1.013l-7.247 7.503c-.612-.855-.978-1.962-.978-3.134z" fill="#131313"/><path fill-rule="evenodd" clip-rule="evenodd" d="M42.993 51.071c-3.394 2.09-7.368 3.325-11.619 3.325-4.22 0-8.133-1.203-11.527-3.26l-5.658 2.754C18.93 57.72 24.892 60 31.374 60c6.514 0 12.506-2.31 17.245-6.142l-5.626-2.787zM13.661 8.508a29.203 29.203 0 00-9.838 17.329l4.526-4.94 1.866 1.805c1.498-4.117 4.066-7.695 7.4-10.322l-1.07-1.098a26.188 26.188 0 0114.89-4.633 25.99 25.99 0 0114.85 4.635l-1.06 1.096a23.58 23.58 0 017.34 10.195l2.263-1.456 4.157 4.56c-1.242-6.844-4.799-12.877-9.807-17.145l1.826-1.916C45.5 2.47 38.744 0 31.405 0s-14.097 2.438-19.6 6.585l1.856 1.923z" fill="#EE3D48"/></symbol><symbol id="phone" viewBox="0 0 24 24">
<path d="M22.6973 16.6507C21.8573 16.6307 20.8 16.5813 20.132 16.464C19.4093 16.336 18.54 16.088 17.928 15.8973C17.448 15.748 16.9253 15.88 16.5693 16.2347L13.6133 19.1733C11.5707 18.0973 9.93467 16.844 8.54933 15.4507C7.156 14.0653 5.90267 12.4293 4.82667 10.3867L7.76534 7.42933C8.12 7.07333 8.252 6.55067 8.10267 6.07067C7.91334 5.46 7.664 4.59067 7.53733 3.868C7.41867 3.2 7.37067 2.14267 7.34934 1.30267C7.332 0.576 6.74 0 6.01334 0H1.33333C0.749334 0 0 0.437334 0 1.33333C0 7.38533 2.45333 13.1653 6.62133 17.3787C10.8347 21.5467 16.6147 24 22.6667 24C23.5627 24 24 23.2507 24 22.6667V17.9867C24 17.26 23.424 16.668 22.6973 16.6507L22.6973 16.6507Z" fill="#EE3D48"/>
</symbol><symbol id="pin" viewBox="0 0 20 28">
<path d="M10 0.666626C4.84536 0.666626 0.666687 4.84529 0.666687 9.99996C0.666687 16.6666 10 27.3333 10 27.3333C10 27.3333 19.3334 16.6666 19.3334 9.99996C19.3334 4.84529 15.1547 0.666626 10 0.666626ZM10 13.3333C8.15869 13.3333 6.66669 11.8413 6.66669 9.99996C6.66669 8.15863 8.15869 6.66663 10 6.66663C11.8414 6.66663 13.3334 8.15863 13.3334 9.99996C13.3334 11.8413 11.8414 13.3333 10 13.3333Z" fill="#EE3D48"/>
</symbol><symbol id="play_button" viewBox="0 0 15 20"><path d="M13.083 10L1.75 1.5v17L13.083 10z" fill="#EE3D48" stroke="#EE3D48" stroke-width="2" stroke-linecap="round" stroke-linejoin="round"/></symbol><symbol id="vk_icon"><path fill-rule="evenodd" clip-rule="evenodd" d="M20.655 8.266c.796.744 1.637 1.444 2.35 2.263.316.364.615.74.843 1.162.324.6.03 1.26-.532 1.297l-3.496-.002c-.902.072-1.621-.276-2.226-.866-.484-.472-.933-.974-1.398-1.462a3.27 3.27 0 00-.63-.535c-.476-.297-.89-.206-1.164.27-.277.485-.34 1.022-.368 1.562-.037.788-.286.995-1.113 1.031-1.767.08-3.445-.176-5.003-1.03-1.374-.752-2.44-1.814-3.366-3.016C2.746 6.598 1.364 4.026.122 1.38-.159.786.045.466.732.455A97.704 97.704 0 014.156.452c.464.007.77.261.95.68.617 1.453 1.372 2.835 2.32 4.115.252.341.51.682.876.922.405.266.714.178.905-.254.12-.274.174-.57.201-.863.09-1.01.102-2.019-.056-3.025C9.255 1.399 8.885.992 8.23.873c-.334-.06-.284-.18-.123-.362C8.388.196 8.653 0 9.18 0h3.951c.622.118.76.385.845.984l.004 4.201c-.007.232.12.92.557 1.074.35.11.58-.158.79-.37.946-.961 1.62-2.097 2.224-3.273.268-.517.498-1.054.721-1.591.165-.398.425-.594.893-.586l3.803.004c.113 0 .227.001.336.02.641.104.817.368.619.967-.312.94-.919 1.722-1.512 2.51-.634.84-1.313 1.65-1.941 2.495-.578.772-.532 1.16.185 1.831z" fill="#fff"/></symbol></svg>

<svg xmlns="http://www.w3.org/2000/svg" xmlns:xlink="http://www.w3.org/1999/xlink"><symbol id="email" viewBox="0 0 512 512"><path fill="#eceff1" d="M64 64h384v384H64z"/><path fill="#cfd8dc" d="M256 296.384L448 448V148.672z"/><path d="M464 64h-16L256 215.616 64 64H48C21.504 64 0 85.504 0 112v288c0 26.496 21.504 48 48 48h16V148.672l192 147.68L448 148.64V448h16c26.496 0 48-21.504 48-48V112c0-26.496-21.504-48-48-48z" fill="#f44336"/></symbol><symbol id="fb_icon"><path d="M11.548.005L8.67 0C5.436 0 3.347 2.318 3.347 5.906V8.63H.453c-.25 0-.453.219-.453.49v3.945c0 .27.203.49.453.49h2.894v9.956c0 .27.202.489.452.489h3.776c.25 0 .452-.22.452-.49v-9.956h3.384c.25 0 .453-.219.453-.489l.001-3.946a.51.51 0 00-.132-.346.436.436 0 00-.32-.143H8.026V6.32c0-1.11.245-1.673 1.582-1.673h1.939c.25 0 .452-.22.452-.49V.494c0-.27-.202-.489-.452-.489z" fill="#fff"/></symbol><symbol id="insta_icon"><path d="M17.503 0H6.497A6.504 6.504 0 000 6.497v11.007A6.504 6.504 0 006.497 24h11.007A6.504 6.504 0 0024 17.504V6.497A6.504 6.504 0 0017.503 0zM12 18.562A6.57 6.57 0 015.438 12 6.57 6.57 0 0112 5.438 6.57 6.57 0 0118.562 12 6.57 6.57 0 0112 18.562zm6.72-11.577c-1.07 0-1.94-.87-1.94-1.939 0-1.07.87-1.94 1.94-1.94 1.069 0 1.939.87 1.939 1.94 0 1.07-.87 1.94-1.94 1.94z" fill="#fff"/><path d="M12 6.844A5.161 5.161 0 006.845 12 5.161 5.161 0 0012 17.155 5.161 5.161 0 0017.155 12 5.161 5.161 0 0012 6.844zm6.719-2.33a.533.533 0 10.001 1.066.533.533 0 00-.001-1.066z" fill="#fff"/></symbol><symbol id="logo" viewBox="0 0 63 60"><path fill-rule="evenodd" clip-rule="evenodd" d="M41.892 17.382h-1.956v-1.995c0-1.297-1.04-2.374-2.293-2.374H25.656c-1.253 0-2.293 1.077-2.293 2.374v1.995h-2.14c-3.272 0-5.902 2.724-5.902 6.111v15.958c0 3.387 2.63 6.11 5.901 6.11h20.67c3.273 0 5.903-2.723 5.903-6.11V23.493c0-3.356-2.662-6.111-5.903-6.111zM62.196 29.13l-12.812-6.238c0 .19.03.38.03.57v.76l11.254 5.477c.702.348.977 1.203.672 1.9l-6.452 14.248c-.337.729-1.162 1.013-1.834.696l-5.107-2.47c-1.376 1.9-3.547 3.136-6.023 3.136h-2.966l12.352 5.983c.704.349 1.53.032 1.835-.695l9.754-21.5c.275-.665-.03-1.52-.703-1.867zM21.222 47.24c-2.477 0-4.678-1.266-6.055-3.198L9.97 46.576a1.333 1.333 0 01-1.834-.697L1.684 31.63c-.337-.729-.032-1.584.672-1.9l11.374-5.54v-.698c0-.222 0-.444.032-.664l-12.966 6.3c-.703.348-.978 1.203-.673 1.9l9.755 21.53c.336.729 1.162 1.013 1.835.697l12.353-5.985h-2.844v-.031zm20.793-28.148a4.151 4.151 0 012.569 1.014l-4.037 4.178a11.082 11.082 0 00-1.712-1.899l3.18-3.293zm-10.61 2.153c5.442 0 9.846 4.56 9.846 10.195 0 5.637-4.404 10.196-9.846 10.196-5.443 0-9.846-4.59-9.846-10.227 0-5.637 4.403-10.164 9.846-10.164zm-2.02-1.52l.612-.633h3.548l-.55.57c-.52-.063-1.04-.127-1.59-.127-.703 0-1.376.064-2.02.19zm10.184-.633l-2.14 2.216c-.766-.474-1.56-.886-2.417-1.17l1.01-1.046h3.547zm-14.586-3.705c0-.38.306-.664.642-.664h11.986c.367 0 .643.317.643.664v.95H24.983v-.95zm-.977 3.705h3.515l-2.14 2.216a11.74 11.74 0 00-3.792 3.927l-.795.823h-3.547l6.759-6.966zm-7.033 4.401c0-2.438 1.926-4.401 4.25-4.401h.305l-4.555 4.718v-.317zm0 15.958v-.633l2.384-2.47h1.59c.215.443.429.887.672 1.33l-4.005 4.116a4.71 4.71 0 01-.641-2.343zm4.25 4.402a4.141 4.141 0 01-2.386-.76l3.822-3.958a11 11 0 001.835 1.773l-2.843 2.945h-.429zm6.42 0h-3.547l1.896-1.964c.796.443 1.652.791 2.54 1.013l-.888.95zm6.024 0h-3.546l.58-.602c.245 0 .459.031.704.031 1.131 0 2.232-.19 3.272-.506l-1.01 1.077zm8.47 0l3.976-4.117c-.123 2.216-1.835 3.99-3.976 4.117zm4.006-6.714l-6.482 6.714h-3.547l7.277-7.536h2.752v.822zm0-12.442l-1.315 1.361h-3.21c-.03-.064-.062-.159-.123-.222l4.19-4.306a4.36 4.36 0 01.458 1.995v1.172zm-14.738 15.26c4.556 0 8.256-3.83 8.256-8.548s-3.7-8.549-8.256-8.549c-4.557 0-8.257 3.831-8.257 8.549 0 4.717 3.7 8.549 8.257 8.549zm0-15.07c3.486 0 6.298 2.913 6.298 6.522 0 3.61-2.812 6.523-6.298 6.523s-6.299-2.914-6.299-6.523c-.031-3.578 2.813-6.523 6.3-6.523zm-5.198 6.522c0-2.976 2.324-5.382 5.198-5.382 1.131 0 2.17.378 3.027 1.013l-7.247 7.503c-.612-.855-.978-1.962-.978-3.134z" fill="#131313"/><path fill-rule="evenodd" clip-rule="evenodd" d="M42.993 51.071c-3.394 2.09-7.368 3.325-11.619 3.325-4.22 0-8.133-1.203-11.527-3.26l-5.658 2.754C18.93 57.72 24.892 60 31.374 60c6.514 0 12.506-2.31 17.245-6.142l-5.626-2.787zM13.661 8.508a29.203 29.203 0 00-9.838 17.329l4.526-4.94 1.866 1.805c1.498-4.117 4.066-7.695 7.4-10.322l-1.07-1.098a26.188 26.188 0 0114.89-4.633 25.99 25.99 0 0114.85 4.635l-1.06 1.096a23.58 23.58 0 017.34 10.195l2.263-1.456 4.157 4.56c-1.242-6.844-4.799-12.877-9.807-17.145l1.826-1.916C45.5 2.47 38.744 0 31.405 0s-14.097 2.438-19.6 6.585l1.856 1.923z" fill="#EE3D48"/></symbol><symbol id="phone" viewBox="0 0 24 24"><path d="M22.697 16.65c-.84-.02-1.897-.069-2.565-.186-.723-.128-1.592-.376-2.204-.567a1.356 1.356 0 00-1.359.338l-2.956 2.938a20.503 20.503 0 01-5.064-3.722 20.504 20.504 0 01-3.722-5.064l2.938-2.958c.355-.356.487-.878.338-1.358-.19-.611-.439-1.48-.566-2.203-.118-.668-.166-1.725-.188-2.565A1.333 1.333 0 006.013 0h-4.68C.75 0 0 .437 0 1.333 0 7.385 2.453 13.165 6.621 17.38 10.835 21.547 16.615 24 22.667 24c.896 0 1.333-.75 1.333-1.333v-4.68c0-.727-.576-1.319-1.303-1.336z" fill="#EE3D48"/></symbol><symbol id="pin" viewBox="0 0 20 28"><path d="M10 .667A9.333 9.333 0 00.667 10C.667 16.667 10 27.333 10 27.333S19.333 16.667 19.333 10A9.333 9.333 0 0010 .667zm0 12.666a3.333 3.333 0 110-6.665 3.333 3.333 0 010 6.665z" fill="#EE3D48"/></symbol><symbol id="play_button" viewBox="0 0 15 20"><path d="M13.083 10L1.75 1.5v17L13.083 10z" fill="#EE3D48" stroke="#EE3D48" stroke-width="2" stroke-linecap="round" stroke-linejoin="round"/></symbol><symbol id="vk_icon"><path fill-rule="evenodd" clip-rule="evenodd" d="M20.655 8.266c.796.744 1.637 1.444 2.35 2.263.316.364.615.74.843 1.162.324.6.03 1.26-.532 1.297l-3.496-.002c-.902.072-1.621-.276-2.226-.866-.484-.472-.933-.974-1.398-1.462a3.27 3.27 0 00-.63-.535c-.476-.297-.89-.206-1.164.27-.277.485-.34 1.022-.368 1.562-.037.788-.286.995-1.113 1.031-1.767.08-3.445-.176-5.003-1.03-1.374-.752-2.44-1.814-3.366-3.016C2.746 6.598 1.364 4.026.122 1.38-.159.786.045.466.732.455A97.704 97.704 0 014.156.452c.464.007.77.261.95.68.617 1.453 1.372 2.835 2.32 4.115.252.341.51.682.876.922.405.266.714.178.905-.254.12-.274.174-.57.201-.863.09-1.01.102-2.019-.056-3.025C9.255 1.399 8.885.992 8.23.873c-.334-.06-.284-.18-.123-.362C8.388.196 8.653 0 9.18 0h3.951c.622.118.76.385.845.984l.004 4.201c-.007.232.12.92.557 1.074.35.11.58-.158.79-.37.946-.961 1.62-2.097 2.224-3.273.268-.517.498-1.054.721-1.591.165-.398.425-.594.893-.586l3.803.004c.113 0 .227.001.336.02.641.104.817.368.619.967-.312.94-.919 1.722-1.512 2.51-.634.84-1.313 1.65-1.941 2.495-.578.772-.532 1.16.185 1.831z" fill="#fff"/></symbol></svg>
